X:199
T:Tavern In The Town
M:4/4
L:1/8
K:G
d | d3 de d^c d | B2 d3/2 d/2 d3 d | d3 de d^c d |
A2 d3/2 e/2d-cB-A | G2 B2 d2 g2 | ag fg e4 |
f3 ff de f | g2 g2 g2 dd | df ff fd cA | Gg gg gd BG |
Af ff fd ef | g2 e2 d3 d | d3 de d^c d | B2 d3/2 d/2 d3 B |
d3 de d^c d | A2 d3/2 e/2d-cB-A | G2 B2 d2 g2 |
ag fg e4 | f3 ff de f | g2 g2 g2 ||
